X:1
T:Zauber der Nacht
T:Theodor Schmidt
T:Nikolaus Lenau
T:Zauber der Nacht
T:CPDL - Creative Commons Attribution Non Commercial 3.0
C:Theodor Schmidt
Z:Nikolaus Lenau
Z:CPDL - Creative Commons Attribution Non Commercial 3.0
%%score [ ( 1 2 ) ( 3 4 ) ]
L:1/8
Q:1/4=80
M:4/4
K:F
V:1 treble-8 nm="Tenor"
V:2 treble-8 
V:3 bass nm="Bass"
V:4 bass 
V:1
!p!"^Langsam" A2 B2 c3 c | !>!d3 =B !>!d2 c2 | A2 B2!<(! c2 ^c2!<)! |!<(! d3!<)! e!f! f4 | %4
w: 1.~~Weil auf mir, du|dunk- les Au- ge,|ü- be dei- ne|gan- ze Macht,|
w: 2.~Nimm mit dei- nem|Zau- ber- dun- kel|die- se Welt von|hin- nen mir,|
!p! e2!>(! c2 f3 c!>)! |!pp! f2 c2 _d2 d2 | _d2 _f2!<(! _e3 e!<)! | _e2!>(! _g2 f4!>)! | %8
w: erns- te, mil- de,|träu- me- ri- sche,|un- er- gründ- lich|sü- ße Nacht,|
w: dass du ü- ber|mei- nem Le- ben|ein- sam schwe- best|für und für,|
!pp! f3 d f2 _d2 | !>!f3 _d c2 c2 | c2[Q:1/4=76]"^rit."!<(! c2 _d2 c2!<)! | %11
w: erns- te, mil- de,|träu- me- ri- sche,|un- er- gründ- lich|
w: dass du ü- ber|mei- nem Le- ben|ein- sam schwe- best|
"^calando" (f4 e2)!>(! g2 |!pp! f8!>)! |] %13
w: sü- * ße|Nacht.|
w: für _ und|für.|
V:2
 A2 B2 c3 c | =B3 B B2 c2 | A2 B2 A2 A2 | A3 A =B4 | c2 c2 c3 c | c2 _A2 A2 A2 | B2 _d2 d3 d | %7
 c2 _e2 e4 | d3 d _d2 d2 | _d3 B A2 A2 | A2 A2 B2 B2 | B6 B2 | A8 |] %13
V:3
!p! F,2 G,2 A,3 A, | !>!^G,3 G, !>!G,2 A,2 | F,2 G,2!<(! A,2 G,2!<)! |!<(! F,3!<)! F,!f! G,4 | %4
!p! G,2!>(! B,2 A,3 A,!>)! |!pp! _A,2 A,2 F,2 F,2 | _G,2 B,2!<(! B,3 B,!<)! | _A,2!>(! C2 C4!>)! | %8
!pp! B,3 B, B,2 B,2 | !>!B,3 F, F,2 F,2 | F,2!<(! F,2 G,2 G,2!<)! |"^calando" G,6!>(! E,2 | %12
!pp! F,8!>)! |] %13
V:4
 F,2 F,2 F,3 F, | F,3 F, F,2 F,2 | F,2 F,2 F,2 E,2 | D,3 D, G,,4 | C,2 B,2 A,3 A, | %5
 _A,2 F,2 F,2 _D,2 | _G,2 G,2 =G,3 G, | _A,2 A,2 =A,4 | B,3 B, B,2 B,2 | B,,3 B,, F,,2 F,,2 | %10
 F,2 F,2 F,2 E,2 | (D,4 C,2) C,2 | F,,8 |] %13

